src/assets/icon/company/Together.svg

<svg width="200" height="80" viewBox="0 0 200 80" fill="none" xmlns="http://www.w3.org/2000/svg">
<path fill-rule="evenodd" clip-rule="evenodd" d="M75.75 20.15H16.19V59.86H75.75V20.15ZM76.94 61.07H15V19H76.94V61.07ZM176.34 32.6002C177.11 32.9702 177.96 33.1502 178.9 33.1502V33.1602C179.8 33.1602 180.64 32.9902 181.41 32.6302C182.18 32.2702 182.85 31.8002 183.4 31.2002C183.95 30.6002 184.39 29.9202 184.7 29.1402C185.01 28.3602 185.17 27.5502 185.17 26.6902C185.17 25.8902 185.02 25.0902 184.72 24.3102C184.42 23.5302 183.99 22.8302 183.45 22.2202C182.91 21.6102 182.26 21.1102 181.49 20.7302C180.73 20.3502 179.85 20.1602 178.95 20.1602C178.05 20.1602 177.21 20.3302 176.44 20.6902C175.67 21.0402 175 21.5202 174.44 22.1202C173.88 22.7202 173.44 23.4102 173.12 24.1902C172.8 24.9802 172.64 25.8302 172.64 26.6502C172.64 27.4702 172.79 28.2702 173.09 29.0502C173.4 29.8402 173.82 30.5302 174.37 31.1402C174.92 31.7502 175.57 32.2302 176.34 32.6002ZM175.42 28.2702C175.25 27.7502 175.17 27.2102 175.17 26.6602H175.16C175.16 26.1302 175.24 25.6102 175.4 25.1002C175.56 24.5902 175.8 24.1302 176.11 23.7302C176.43 23.3302 176.82 23.0102 177.29 22.7602C177.76 22.5102 178.32 22.3902 178.9 22.3902C179.48 22.3902 180.01 22.5002 180.47 22.7402C180.94 22.9802 181.33 23.2902 181.65 23.6902C181.97 24.0902 182.21 24.5402 182.39 25.0602C182.56 25.5802 182.65 26.1402 182.65 26.6702C182.65 27.2002 182.57 27.7202 182.41 28.2302C182.25 28.7402 182.01 29.2002 181.69 29.6102C181.37 30.0202 180.97 30.3402 180.51 30.5902C180.05 30.8402 179.5 30.9602 178.91 30.9602C178.32 30.9602 177.8 30.8402 177.33 30.6002C176.86 30.3602 176.47 30.0402 176.15 29.6402C175.83 29.2402 175.59 28.7902 175.42 28.2702ZM155.1 31.4619C155.47 31.1019 155.75 30.6719 155.96 30.1919L155.97 30.1819L153.93 29.0119C153.77 29.3619 153.57 29.6519 153.32 29.9019C153.07 30.1419 152.8 30.3419 152.5 30.5019C152.21 30.6519 151.9 30.7719 151.58 30.8419C151.26 30.9119 150.95 30.9519 150.65 30.9519C150.13 30.9519 149.66 30.8619 149.23 30.6819C148.8 30.5019 148.43 30.2519 148.1 29.9419C147.77 29.6319 147.5 29.2619 147.29 28.8419C147.07 28.4219 146.93 27.9719 146.86 27.5019H152.07V25.5019H146.93C147.02 25.0919 147.15 24.7019 147.34 24.3219C147.52 23.9419 147.77 23.6119 148.07 23.3219C148.37 23.0419 148.74 22.8019 149.16 22.6319C149.58 22.4619 150.07 22.3719 150.61 22.3719C150.9 22.3719 151.2 22.4019 151.51 22.4719C151.82 22.5419 152.12 22.6519 152.41 22.7919C152.7 22.9419 152.97 23.1319 153.22 23.3819C153.46 23.6319 153.67 23.9319 153.84 24.2919L155.76 22.9719C155.34 22.1419 154.7 21.4719 153.84 20.9519C152.98 20.4319 151.92 20.1719 150.67 20.1719C149.63 20.1719 148.72 20.3619 147.92 20.7319C147.12 21.1019 146.45 21.5919 145.91 22.1919C145.37 22.7919 144.95 23.4819 144.67 24.2419C144.38 25.0119 144.24 25.7419 144.24 26.5619C144.24 27.3819 144.39 28.1819 144.69 28.9719C145 29.7619 145.42 30.4619 145.97 31.0819C146.52 31.7019 147.18 32.2119 147.96 32.5919C148.74 32.9819 149.61 33.1719 150.56 33.1719C151.14 33.1719 151.7 33.1019 152.26 32.9719C152.82 32.8419 153.34 32.6419 153.82 32.3919C154.31 32.1419 154.73 31.8319 155.1 31.4619ZM135.65 33.1805C135.52 33.1805 135.37 33.1805 135.22 33.1505C135.084 33.1335 134.948 33.1093 134.806 33.084L134.73 33.0705C134.56 33.0305 134.4 32.9905 134.23 32.9205C134.07 32.8605 133.92 32.7905 133.8 32.7005L134.12 30.6405C134.25 30.7105 134.44 30.7905 134.67 30.8805C134.91 30.9705 135.15 31.0205 135.4 31.0205C135.75 31.0205 136.05 30.9205 136.31 30.7205C136.57 30.5205 136.8 30.1605 136.99 29.6505L132.27 20.2305H134.97L138.12 27.1405L141.05 20.2305H143.67L139.15 29.9805C138.88 30.5605 138.63 31.0505 138.37 31.4505C138.12 31.8505 137.85 32.1805 137.58 32.4405C137.31 32.7005 137.02 32.8905 136.7 33.0005C136.39 33.1105 136.03 33.1705 135.63 33.1705L135.65 33.1805ZM91.7402 20.2383H81.1602V33.0583H83.6301V22.4283H89.2602V33.0583H91.7402V20.2383ZM94.54 20.2383V33.0383H97.04V28.7483H100.08C100.67 28.7483 101.22 28.6283 101.71 28.3883C102.21 28.1483 102.63 27.8283 102.98 27.4283C103.33 27.0283 103.6 26.5783 103.79 26.0683C103.98 25.5583 104.08 24.9983 104.08 24.4883C104.08 23.9783 103.98 23.4583 103.77 22.9483C103.56 22.4383 103.28 21.9783 102.92 21.5783C102.56 21.1783 102.13 20.8583 101.63 20.6083C101.13 20.3583 100.58 20.2383 99.99 20.2383H94.54ZM99.94 26.5783H97.04V26.5683V22.4183H99.83C100.05 22.4183 100.26 22.4583 100.47 22.5483C100.68 22.6383 100.86 22.7783 101.02 22.9583C101.18 23.1383 101.3 23.3583 101.4 23.6183C101.5 23.8783 101.55 24.1783 101.55 24.4983C101.55 25.1383 101.4 25.6483 101.09 26.0183C100.78 26.3883 100.4 26.5783 99.94 26.5783ZM112.54 33.0617V28.3117H110.5L107.61 33.0617H104.86L108.01 28.0117C107.27 27.7117 106.68 27.2317 106.24 26.5717C105.79 25.9117 105.57 25.1417 105.57 24.2817C105.57 23.7417 105.67 23.2317 105.88 22.7517C106.09 22.2717 106.37 21.8417 106.73 21.4717C107.09 21.1017 107.52 20.8017 108.02 20.5917C108.52 20.3717 109.07 20.2617 109.66 20.2617H115.03V33.0817H112.55L112.54 33.0617ZM112.54 22.3817H109.92C109.68 22.3817 109.45 22.4217 109.23 22.5117C109.01 22.6017 108.82 22.7317 108.64 22.8917C108.46 23.0517 108.33 23.2517 108.22 23.4917C108.12 23.7317 108.07 23.9917 108.07 24.2817C108.07 24.8617 108.24 25.3217 108.59 25.6717C108.93 26.0217 109.36 26.1917 109.87 26.1917H112.55V22.3817H112.54ZM128.28 24.5783V33.0583H130.78V20.2383H128.12L124.29 27.5383L120.49 20.2383H117.81V33.0583H120.31V24.5783L123.62 30.8883H124.97L128.28 24.5783ZM168.18 33.0583V24.5783L164.86 30.8883H163.51L160.2 24.5783V33.0583H157.7V20.2383H160.38L164.18 27.5383L168.01 20.2383H170.67V33.0583H168.18ZM81.2598 58.9181V37.0781H90.5398C91.5498 37.0781 92.4798 37.2881 93.3298 37.7081C94.1798 38.1281 94.9198 38.6781 95.5398 39.3681C96.1598 40.0581 96.6398 40.8381 96.9898 41.7081C97.3398 42.5781 97.5198 43.4581 97.5198 44.3381C97.5198 45.2181 97.3498 46.1581 97.0298 47.0281C96.6998 47.8981 96.2398 48.6781 95.6398 49.3481C95.0398 50.0281 94.3198 50.5681 93.4798 50.9781C92.6398 51.3881 91.7098 51.5981 90.6998 51.5981H85.5198V58.9181H81.2598ZM85.5198 47.8781H90.4498C91.2298 47.8781 91.8798 47.5581 92.4098 46.9281C92.9298 46.2881 93.1998 45.4281 93.1998 44.3481C93.1998 43.7981 93.1198 43.2981 92.9498 42.8581C92.7898 42.4181 92.5698 42.0381 92.2998 41.7381C92.0298 41.4281 91.7198 41.1981 91.3598 41.0481C90.9998 40.8981 90.6398 40.8181 90.2598 40.8181H85.5098V47.8981L85.5198 47.8781ZM110.46 37.0781H106.7H106.69L98.3301 58.9181H102.71L104.72 53.4681H112.37L114.41 58.9181H118.79L110.46 37.0781ZM108.58 41.9081L111.6 50.4881H105.43L108.58 41.9081ZM119.93 39.8784C120.81 38.8984 121.83 38.1484 122.98 37.6484C124.13 37.1484 125.51 36.8984 127.11 36.8984C129.21 36.8984 130.87 37.3584 132.09 38.2784C133.31 39.1984 133.93 40.5584 133.93 42.3384C133.93 43.4484 133.66 44.4484 133.11 45.3384C132.57 46.2284 131.71 46.8584 130.53 47.2284C131.89 47.4984 132.94 48.0984 133.68 49.0284C134.42 49.9584 134.79 51.1184 134.79 52.4884C134.79 53.5184 134.59 54.4284 134.19 55.2384C133.79 56.0484 133.24 56.7384 132.54 57.2984C131.84 57.8684 131 58.2984 130.03 58.6084C129.05 58.9184 128 59.0684 126.87 59.0684C125.29 59.0684 123.89 58.8084 122.68 58.2884C121.47 57.7684 120.39 56.9784 119.44 55.9384L121.91 52.9884C122.53 53.7084 123.22 54.2684 123.99 54.6784C124.76 55.0884 125.69 55.2984 126.78 55.2984C127.87 55.2984 128.76 55.0084 129.46 54.4384C130.16 53.8684 130.51 53.0684 130.51 52.0384C130.51 51.0984 130.14 50.3184 129.41 49.6984C128.68 49.0884 127.57 48.7784 126.09 48.7784H123.81V45.6384H125.85C127.17 45.6384 128.17 45.3984 128.87 44.9184C129.57 44.4384 129.92 43.7584 129.92 42.8684C129.92 42.0884 129.66 41.4984 129.13 41.0784C128.61 40.6684 127.86 40.4684 126.89 40.4684C125.92 40.4684 125.07 40.6484 124.32 41.0084C123.57 41.3684 122.91 41.8784 122.33 42.5284L119.92 39.8784H119.93ZM143.14 58.1397C144.44 58.7697 145.9 59.0797 147.5 59.0797L147.51 59.0897C149.06 59.0897 150.48 58.7797 151.8 58.1797C153.11 57.5797 154.24 56.7697 155.19 55.7497C156.14 54.7297 156.88 53.5597 157.41 52.2397C157.94 50.9197 158.21 49.5297 158.21 48.0697C158.21 46.6997 157.95 45.3397 157.44 44.0097C156.93 42.6797 156.21 41.4897 155.28 40.4397C154.35 39.3897 153.24 38.5497 151.93 37.8997C150.63 37.2497 149.14 36.9297 147.6 36.9297C146.06 36.9297 144.63 37.2397 143.31 37.8397C141.99 38.4497 140.86 39.2597 139.9 40.2897C138.94 41.3197 138.19 42.4997 137.65 43.8297C137.1 45.1597 136.83 46.6197 136.83 48.0097C136.83 49.3997 137.09 50.7697 137.6 52.0997C138.12 53.4297 138.84 54.6097 139.78 55.6497C140.71 56.6797 141.83 57.5197 143.14 58.1397ZM141.59 50.7497C141.3 49.8697 141.16 48.9497 141.16 48.0097H141.15C141.15 47.1097 141.29 46.2197 141.57 45.3497C141.85 44.4797 142.26 43.6997 142.79 43.0097C143.32 42.3197 143.99 41.7697 144.79 41.3497C145.6 40.9297 146.55 40.7197 147.54 40.7197C148.53 40.7197 149.42 40.9197 150.21 41.3197C151 41.7197 151.67 42.2597 152.21 42.9397C152.75 43.6197 153.17 44.3997 153.47 45.2797C153.77 46.1597 153.92 47.1197 153.92 48.0197C153.92 48.9197 153.78 49.8097 153.5 50.6797C153.23 51.5497 152.81 52.3297 152.27 53.0297C151.73 53.7297 151.06 54.2897 150.27 54.7097C149.48 55.1297 148.55 55.3397 147.54 55.3397C146.53 55.3397 145.63 55.1297 144.84 54.7197C144.05 54.3097 143.38 53.7697 142.84 53.0897C142.29 52.4097 141.88 51.6297 141.59 50.7497ZM179.39 58.9181V44.4581L173.75 55.2281H171.43L165.79 44.4581V58.9181H161.53V37.0781H166.1L172.57 49.5081L179.11 37.0781H183.65V58.9181H179.39ZM44.7004 28.7984L45.9604 27.8884L47.2204 28.7984L46.7404 27.3184L48.0104 26.3984H46.4404L45.9604 24.8984L45.4804 26.4084L43.9004 26.3984L45.1804 27.3184L44.7004 28.7984ZM39.4604 29.6284L38.2004 30.5484L38.6804 29.0684L37.4004 28.1484H38.9704L39.4504 26.6484L39.9404 28.1484H41.5104L40.2304 29.0684L40.7104 30.5484L39.4604 29.6284ZM34.6996 31.4219L34.2096 32.9219H32.6396L33.9196 33.8419L33.4396 35.3219L34.6996 34.4019L35.9496 35.3219L35.4796 33.8419L36.7496 32.9219H35.1796L34.6996 31.4219ZM34.2104 41.8202L32.9504 40.9002L31.6904 41.8202L32.1704 40.3302L30.9004 39.4202H32.4704L32.9504 37.9102L33.4304 39.4202H35.0004L33.7304 40.3302L34.2104 41.8202ZM35.1796 45.9297L34.6996 44.4297L34.2096 45.9297H32.6396L33.9196 46.8497L33.4396 48.3297L34.6996 47.4097L35.9496 48.3297L35.4696 46.8497L36.7496 45.9297H35.1796ZM39.4602 49.1992L39.9502 50.6992H41.5202L40.2402 51.6192L40.7202 53.0992L39.4602 52.1792L38.2102 53.0992L38.6902 51.6192L37.4102 50.6992H38.9802L39.4602 49.1992ZM46.4402 52.4319L45.9602 50.9219L45.4802 52.4319H43.9102L45.1802 53.3519L44.7002 54.8319L45.9602 53.9119L47.2202 54.8319L46.7402 53.3519L48.0102 52.4319H46.4402ZM52.4604 49.1992L52.9404 50.6992H54.5104L53.2304 51.6192L53.7104 53.0992L52.4604 52.1792L51.2004 53.0992L51.6804 51.6192L50.4004 50.6992H51.9704L52.4604 49.1992ZM57.7099 45.9297L57.2199 44.4297L56.7399 45.9297H55.1699L56.4499 46.8497L55.9699 48.3297L57.2199 47.4097L58.4799 48.3297L57.9999 46.8497L59.2799 45.9297H57.7099ZM59.4304 39.3984H61.0104L59.7304 40.3184L60.2104 41.7984L58.9504 40.8784L57.6904 41.7984L58.1704 40.3184L56.9004 39.3984H58.4704L58.9504 37.8984L59.4304 39.3984ZM55.9699 35.2984L57.2199 34.3784L58.4799 35.2984L57.9999 33.8184L59.2799 32.8984H57.7099L57.2199 31.3984L56.7399 32.8984H55.1699L56.4499 33.8184L55.9699 35.2984ZM51.9899 28.1484L52.4699 26.6484L52.9599 28.1484H54.5299L53.2499 29.0684L53.7299 30.5484L52.4799 29.6284L51.2199 30.5484L51.6999 29.0684L50.4199 28.1484H51.9899Z" fill="white"/>
</svg>

<svg width="200" height="80" fill="none" xmlns="http://www.w3.org/2000/svg"><path fill-rule="evenodd" clip-rule="evenodd" d="M75.75 20.15H16.19v39.71h59.56V20.15Zm1.19 40.92H15V19h61.94v42.07Zm99.4-28.47c.77.37 1.62.55 2.56.55v.01c.9 0 1.74-.17 2.51-.53.77-.36 1.44-.83 1.99-1.43s.99-1.28 1.3-2.06a6.552 6.552 0 0 0 .02-4.83 6.85 6.85 0 0 0-1.27-2.09 6.329 6.329 0 0 0-1.96-1.49c-.76-.38-1.64-.57-2.54-.57-.9 0-1.74.17-2.51.53-.77.35-1.44.83-2 1.43s-1 1.29-1.32 2.07c-.32.79-.48 1.64-.48 2.46a6.759 6.759 0 0 0 1.73 4.49c.55.61 1.2 1.09 1.97 1.46Zm-.92-4.33a5.16 5.16 0 0 1-.25-1.61h-.01c0-.53.08-1.05.24-1.56.16-.51.4-.97.71-1.37.32-.4.71-.72 1.18-.97s1.03-.37 1.61-.37c.58 0 1.11.11 1.57.35.47.24.86.55 1.18.95.32.4.56.85.74 1.37.17.52.26 1.08.26 1.61s-.08 1.05-.24 1.56c-.16.51-.4.97-.72 1.38-.32.41-.72.73-1.18.98-.46.25-1.01.37-1.6.37-.59 0-1.11-.12-1.58-.36s-.86-.56-1.18-.96c-.32-.4-.56-.85-.73-1.37Zm-20.32 3.192c.37-.36.65-.79.86-1.27l.01-.01-2.04-1.17c-.16.35-.36.64-.61.89-.25.24-.52.44-.82.6-.29.15-.6.27-.92.34-.32.07-.63.11-.93.11-.52 0-.99-.09-1.42-.27-.43-.18-.8-.43-1.13-.74-.33-.31-.6-.68-.81-1.1-.22-.42-.36-.87-.43-1.34h5.21v-2h-5.14c.09-.41.22-.8.41-1.18.18-.38.43-.71.73-1 .3-.28.67-.52 1.09-.69.42-.17.91-.26 1.45-.26a4.068 4.068 0 0 1 1.8.42c.29.15.56.34.81.59.24.25.45.55.62.91l1.92-1.32c-.42-.83-1.06-1.5-1.92-2.02-.86-.52-1.92-.78-3.17-.78-1.04 0-1.95.19-2.75.56-.8.37-1.47.86-2.01 1.46-.54.6-.96 1.29-1.24 2.05-.29.77-.43 1.5-.43 2.32 0 .82.15 1.62.45 2.41.31.79.73 1.49 1.28 2.11a6.36 6.36 0 0 0 1.99 1.51c.78.39 1.65.58 2.6.58.58 0 1.14-.07 1.7-.2s1.08-.33 1.56-.58c.49-.25.91-.56 1.28-.93Zm-19.45 1.719c-.13 0-.28 0-.43-.03a8.091 8.091 0 0 1-.414-.067l-.076-.014c-.17-.04-.33-.08-.5-.15-.16-.06-.31-.13-.43-.22l.32-2.06c.13.07.32.15.55.24.24.09.48.14.73.14.35 0 .65-.1.91-.3.26-.2.49-.56.68-1.07l-4.72-9.42h2.7l3.15 6.91 2.93-6.91h2.62l-4.52 9.75c-.27.58-.52 1.07-.78 1.47-.25.4-.52.73-.79.99s-.56.45-.88.56c-.31.11-.67.17-1.07.17l.02.01ZM91.74 20.238H81.16v12.82h2.47v-10.63h5.63v10.63h2.48v-12.82Zm2.8 0v12.8h2.5v-4.29h3.04c.59 0 1.14-.12 1.63-.36.5-.24.92-.56 1.27-.96.35-.4.62-.85.81-1.36.19-.51.29-1.07.29-1.58s-.1-1.03-.31-1.54-.49-.97-.85-1.37c-.36-.4-.79-.72-1.29-.97s-1.05-.37-1.64-.37h-5.45Zm5.4 6.34h-2.9v-4.16h2.79c.22 0 .43.04.64.13.21.09.39.23.55.41.16.18.28.4.38.66.1.26.15.56.15.88 0 .64-.15 1.15-.46 1.52-.31.37-.69.56-1.15.56Zm12.6 6.484v-4.75h-2.04l-2.89 4.75h-2.75l3.15-5.05c-.74-.3-1.33-.78-1.77-1.44-.45-.66-.67-1.43-.67-2.29 0-.54.1-1.05.31-1.53s.49-.91.85-1.28.79-.67 1.29-.88c.5-.22 1.05-.33 1.64-.33h5.37v12.82h-2.48l-.01-.02Zm0-10.68h-2.62c-.24 0-.47.04-.69.13-.22.09-.41.22-.59.38s-.31.36-.42.6c-.1.24-.15.5-.15.79 0 .58.17 1.04.52 1.39.34.35.77.52 1.28.52h2.68v-3.81h-.01Zm15.74 2.196v8.48h2.5v-12.82h-2.66l-3.83 7.3-3.8-7.3h-2.68v12.82h2.5v-8.48l3.31 6.31h1.35l3.31-6.31Zm39.9 8.48v-8.48l-3.32 6.31h-1.35l-3.31-6.31v8.48h-2.5v-12.82h2.68l3.8 7.3 3.83-7.3h2.66v12.82h-2.49Zm-86.92 25.86v-21.84h9.28c1.01 0 1.94.21 2.79.63.85.42 1.59.97 2.21 1.66.62.69 1.1 1.47 1.45 2.34.35.87.53 1.75.53 2.63 0 .88-.17 1.82-.49 2.69-.33.87-.79 1.65-1.39 2.32-.6.68-1.32 1.22-2.16 1.63-.84.41-1.77.62-2.78.62h-5.18v7.32h-4.26Zm4.26-11.04h4.93c.78 0 1.43-.32 1.96-.95.52-.64.79-1.5.79-2.58 0-.55-.08-1.05-.25-1.49-.16-.44-.38-.82-.65-1.12a2.52 2.52 0 0 0-.94-.69c-.36-.15-.72-.23-1.1-.23h-4.75v7.08l.01-.02Zm24.94-10.8H106.69l-8.36 21.84h4.38l2.01-5.45h7.65l2.04 5.45h4.38l-8.33-21.84Zm-1.88 4.83 3.02 8.58h-6.17l3.15-8.58Zm11.35-2.03c.88-.98 1.9-1.73 3.05-2.23s2.53-.75 4.13-.75c2.1 0 3.76.46 4.98 1.38 1.22.92 1.84 2.28 1.84 4.06 0 1.11-.27 2.11-.82 3-.54.89-1.4 1.52-2.58 1.89 1.36.27 2.41.87 3.15 1.8.74.93 1.11 2.09 1.11 3.46 0 1.03-.2 1.94-.6 2.75-.4.81-.95 1.5-1.65 2.06-.7.57-1.54 1-2.51 1.31-.98.31-2.03.46-3.16.46-1.58 0-2.98-.26-4.19-.78-1.21-.52-2.29-1.31-3.24-2.35l2.47-2.95c.62.72 1.31 1.28 2.08 1.69.77.41 1.7.62 2.79.62s1.98-.29 2.68-.86c.7-.57 1.05-1.37 1.05-2.4 0-.94-.37-1.72-1.1-2.34-.73-.61-1.84-.92-3.32-.92h-2.28v-3.14h2.04c1.32 0 2.32-.24 3.02-.72.7-.48 1.05-1.16 1.05-2.05 0-.78-.26-1.37-.79-1.79-.52-.41-1.27-.61-2.24-.61-.97 0-1.82.18-2.57.54-.75.36-1.41.87-1.99 1.52l-2.41-2.65h.01Zm23.21 18.262c1.3.63 2.76.94 4.36.94l.01.01c1.55 0 2.97-.31 4.29-.91 1.31-.6 2.44-1.41 3.39-2.43.95-1.02 1.69-2.19 2.22-3.51.53-1.32.8-2.71.8-4.17 0-1.37-.26-2.73-.77-4.06-.51-1.33-1.23-2.52-2.16-3.57-.93-1.05-2.04-1.89-3.35-2.54-1.3-.65-2.79-.97-4.33-.97s-2.97.31-4.29.91c-1.32.61-2.45 1.42-3.41 2.45-.96 1.03-1.71 2.21-2.25 3.54-.55 1.33-.82 2.79-.82 4.18 0 1.39.26 2.76.77 4.09.52 1.33 1.24 2.51 2.18 3.55.93 1.03 2.05 1.87 3.36 2.49Zm-1.55-7.39c-.29-.88-.43-1.8-.43-2.74h-.01c0-.9.14-1.79.42-2.66.28-.87.69-1.65 1.22-2.34s1.2-1.24 2-1.66c.81-.42 1.76-.63 2.75-.63s1.88.2 2.67.6c.79.4 1.46.94 2 1.62.54.68.96 1.46 1.26 2.34.3.88.45 1.84.45 2.74 0 .9-.14 1.79-.42 2.66-.27.87-.69 1.65-1.23 2.35-.54.7-1.21 1.26-2 1.68-.79.42-1.72.63-2.73.63s-1.91-.21-2.7-.62c-.79-.41-1.46-.95-2-1.63a7.31 7.31 0 0 1-1.25-2.34Zm37.8 8.168v-14.46l-5.64 10.77h-2.32l-5.64-10.77v14.46h-4.26v-21.84h4.57l6.47 12.43 6.54-12.43h4.54v21.84h-4.26ZM44.7 28.798l1.26-.91 1.26.91-.48-1.48 1.27-.92h-1.57l-.48-1.5-.48 1.51-1.58-.01 1.28.92-.48 1.48Zm-5.24.83-1.26.92.48-1.48-1.28-.92h1.57l.48-1.5.49 1.5h1.57l-1.28.92.48 1.48-1.25-.92Zm-4.76 1.794-.49 1.5h-1.57l1.28.92-.48 1.48 1.26-.92 1.25.92-.47-1.48 1.27-.92h-1.57l-.48-1.5Zm-.49 10.398-1.26-.92-1.26.92.48-1.49-1.27-.91h1.57l.48-1.51.48 1.51H35l-1.27.91.48 1.49Zm.97 4.11-.48-1.5-.49 1.5h-1.57l1.28.92-.48 1.48 1.26-.92 1.25.92-.48-1.48 1.28-.92h-1.57Zm4.28 3.27.49 1.5h1.57l-1.28.92.48 1.48-1.26-.92-1.25.92.48-1.48-1.28-.92h1.57l.48-1.5Zm6.98 3.232-.48-1.51-.48 1.51h-1.57l1.27.92-.48 1.48 1.26-.92 1.26.92-.48-1.48 1.27-.92h-1.57Zm6.02-3.233.48 1.5h1.57l-1.28.92.48 1.48-1.25-.92-1.26.92.48-1.48-1.28-.92h1.57l.49-1.5Zm5.25-3.27-.49-1.5-.48 1.5h-1.57l1.28.92-.48 1.48 1.25-.92 1.26.92-.48-1.48 1.28-.92h-1.57Zm1.72-6.53h1.58l-1.28.92.48 1.48-1.26-.92-1.26.92.48-1.48-1.27-.92h1.57l.48-1.5.48 1.5Zm-3.46-4.1 1.25-.92 1.26.92-.48-1.48 1.28-.92h-1.57l-.49-1.5-.48 1.5h-1.57l1.28.92-.48 1.48Zm-3.98-7.15.48-1.5.49 1.5h1.57l-1.28.92.48 1.48-1.25-.92-1.26.92.48-1.48-1.28-.92h1.57Z" fill="#fff"/></svg>
